(Project twobycorners)
(Created by Estlcam version 11 build 11.244)
(Machining time about 01:12:38 hours)

(Required tools:)
(three)
G21
G90
G94
M03 S8000
G00 Z5.0000


(No. 1: Hole 1)
G00 X8.5055 Y21.7504
G00 Z0.5000
G01 Z0.0000 F100 S8000
G01 Z-2.1000
G01 X6.4151 Y23.8412
G01 X8.5055 Y25.9315
G01 X18.5430 Y35.9686
G01 X20.0747 Y34.4369
G01 X10.0377 Y24.3999
G03 Y23.2827 I0.5586 J-0.5586
G01 X23.2828 Y10.0376
G03 X24.4000 I0.5586 J0.5586
G01 X50.3310 Y35.9686
G01 X51.8627 Y34.4369
G01 X25.9311 Y8.5054
G01 X23.8408 Y6.4151
G01 X8.5055 Y21.7504
G01 Z-4.2000
G01 X6.4151 Y23.8412
G01 X8.5055 Y25.9315
G01 X18.5430 Y35.9686
G01 X20.0747 Y34.4369
G01 X10.0377 Y24.3999
G03 Y23.2827 I0.5586 J-0.5586
G01 X23.2828 Y10.0376
G03 X24.4000 I0.5586 J0.5586
G01 X50.3310 Y35.9686
G01 X51.8627 Y34.4369
G01 X25.9311 Y8.5054
G01 X23.8408 Y6.4151
G01 X8.5055 Y21.7504
G01 Z-5.0000
G01 X6.4151 Y23.8412
G01 X8.5055 Y25.9315
G01 X18.5430 Y35.9686
G01 X20.0747 Y34.4369
G01 X10.0377 Y24.3999
G03 Y23.2827 I0.5586 J-0.5586
G01 X23.2828 Y10.0376
G03 X24.4000 I0.5586 J0.5586
G01 X50.3310 Y35.9686
G01 X51.8627 Y34.4369
G01 X25.9311 Y8.5054
G01 X23.8408 Y6.4151
G01 X8.5055 Y21.7504
G00 Z5.0000


(No. 2: Hole 2)
G00 X23.8410 Y17.0113 Z5.0000
G00 Z0.5000
G01 Z0.0000 F100
G01 Z-2.1000
G01 X17.0113 Y23.8410
G01 X23.8410 Y30.6708
G01 X30.6708 Y23.8410
G01 X23.8410 Y17.0113
G01 Z-4.2000
G01 X17.0113 Y23.8410
G01 X23.8410 Y30.6708
G01 X30.6708 Y23.8410
G01 X23.8410 Y17.0113
G01 Z-5.0000
G01 X17.0113 Y23.8410
G01 X23.8410 Y30.6708
G01 X30.6708 Y23.8410
G01 X23.8410 Y17.0113
G00 Z5.0000


(No. 3: Hole 4)
G00 X34.4370 Y27.6074 Z5.0000
G00 Z0.5000
G01 Z0.0000 F100
G01 Z-2.1000
G01 X6.4152 Y55.6292
G01 X8.5055 Y57.7195
G01 X21.7505 Y70.9646
G01 X23.8408 Y73.0549
G01 X25.9240 Y70.9717
G01 X35.9687 Y60.9270
G01 X34.4370 Y59.3954
G01 X24.3994 Y69.4329
G03 X23.2822 I-0.5586 J-0.5586
G01 X10.0371 Y56.1878
G03 Y55.0706 I0.5586 J-0.5586
G01 X35.9687 Y29.1391
G01 X34.4370 Y27.6074
G01 Z-4.2000
G01 X6.4152 Y55.6292
G01 X8.5055 Y57.7195
G01 X21.7505 Y70.9646
G01 X23.8408 Y73.0549
G01 X25.9240 Y70.9717
G01 X35.9687 Y60.9270
G01 X34.4370 Y59.3954
G01 X24.3994 Y69.4329
G03 X23.2822 I-0.5586 J-0.5586
G01 X10.0371 Y56.1878
G03 Y55.0706 I0.5586 J-0.5586
G01 X35.9687 Y29.1391
G01 X34.4370 Y27.6074
G01 Z-5.0000
G01 X6.4152 Y55.6292
G01 X8.5055 Y57.7195
G01 X21.7505 Y70.9646
G01 X23.8408 Y73.0549
G01 X25.9240 Y70.9717
G01 X35.9687 Y60.9270
G01 X34.4370 Y59.3954
G01 X24.3994 Y69.4329
G03 X23.2822 I-0.5586 J-0.5586
G01 X10.0371 Y56.1878
G03 Y55.0706 I0.5586 J-0.5586
G01 X35.9687 Y29.1391
G01 X34.4370 Y27.6074
G00 Z5.0000


(No. 4: Hole 11)
G00 X43.5015 Y18.5429 Z5.0000
G00 Z0.5000
G01 Z0.0000 F100
G01 Z-2.1000
G01 X45.0332 Y20.0746
G01 X55.0707 Y10.0376
G03 X56.1879 I0.5586 J0.5586
G01 X82.1190 Y35.9686
G01 X83.6511 Y34.4368
G01 X57.7196 Y8.5054
G01 X55.6293 Y6.4150
G01 X53.5385 Y8.5054
G01 X43.5015 Y18.5429
G01 Z-4.2000
G01 X45.0332 Y20.0746
G01 X55.0707 Y10.0376
G03 X56.1879 I0.5586 J0.5586
G01 X82.1190 Y35.9686
G01 X83.6511 Y34.4368
G01 X57.7196 Y8.5054
G01 X55.6293 Y6.4150
G01 X53.5385 Y8.5054
G01 X43.5015 Y18.5429
G01 Z-5.0000
G01 X45.0332 Y20.0746
G01 X55.0707 Y10.0376
G03 X56.1879 I0.5586 J0.5586
G01 X82.1190 Y35.9686
G01 X83.6511 Y34.4368
G01 X57.7196 Y8.5054
G01 X55.6293 Y6.4150
G01 X53.5385 Y8.5054
G01 X43.5015 Y18.5429
G00 Z5.0000


(No. 5: Hole 10)
G00 X55.6291 Y17.0113 Z5.0000
G00 Z0.5000
G01 Z0.0000 F100
G01 Z-2.1000
G01 X48.7993 Y23.8410
G01 X55.6291 Y30.6708
G01 X62.4589 Y23.8410
G01 X55.6291 Y17.0113
G01 Z-4.2000
G01 X48.7993 Y23.8410
G01 X55.6291 Y30.6708
G01 X62.4589 Y23.8410
G01 X55.6291 Y17.0113
G01 Z-5.0000
G01 X48.7993 Y23.8410
G01 X55.6291 Y30.6708
G01 X62.4589 Y23.8410
G01 X55.6291 Y17.0113
G00 Z5.0000


(No. 6: Hole 7)
G00 X66.2251 Y27.6073 Z5.0000
G00 Z0.5000
G01 Z0.0000 F100
G01 Z-2.1000
G01 X43.5013 Y50.3311
G01 X45.0331 Y51.8629
G01 X67.7569 Y29.1390
G01 X66.2251 Y27.6073
G01 Z-4.2000
G01 X43.5013 Y50.3311
G01 X45.0331 Y51.8629
G01 X67.7569 Y29.1390
G01 X66.2251 Y27.6073
G01 Z-5.0000
G01 X43.5013 Y50.3311
G01 X45.0331 Y51.8629
G01 X67.7569 Y29.1390
G01 X66.2251 Y27.6073
G00 Z5.0000


(No. 7: Hole 14)
G00 X71.5231 Y32.9053 Z5.0000
G00 Z0.5000
G01 Z0.0000 F100
G01 Z-2.1000
G01 X64.6933 Y39.7351
G01 X71.5231 Y46.5648
G01 X78.3529 Y39.7351
G01 X71.5231 Y32.9053
G01 Z-4.2000
G01 X64.6933 Y39.7351
G01 X71.5231 Y46.5648
G01 X78.3529 Y39.7351
G01 X71.5231 Y32.9053
G01 Z-5.0000
G01 X64.6933 Y39.7351
G01 X71.5231 Y46.5648
G01 X78.3529 Y39.7351
G01 X71.5231 Y32.9053
G00 Z5.0000


(No. 8: Hole 12)
G00 X75.2894 Y18.5429 Z5.0000
G00 Z0.5000
G01 Z0.0000 F100
G01 Z-2.1000
G01 X76.8211 Y20.0746
G01 X86.8587 Y10.0370
G03 X87.9759 I0.5586 J0.5586
G01 X113.9074 Y35.9686
G01 X115.4391 Y34.4369
G01 X89.5076 Y8.5054
G01 X87.4173 Y6.4151
G01 X85.3270 Y8.5054
G01 X75.2894 Y18.5429
G01 Z-4.2000
G01 X76.8211 Y20.0746
G01 X86.8587 Y10.0370
G03 X87.9759 I0.5586 J0.5586
G01 X113.9074 Y35.9686
G01 X115.4391 Y34.4369
G01 X89.5076 Y8.5054
G01 X87.4173 Y6.4151
G01 X85.3270 Y8.5054
G01 X75.2894 Y18.5429
G01 Z-5.0000
G01 X76.8211 Y20.0746
G01 X86.8587 Y10.0370
G03 X87.9759 I0.5586 J0.5586
G01 X113.9074 Y35.9686
G01 X115.4391 Y34.4369
G01 X89.5076 Y8.5054
G01 X87.4173 Y6.4151
G01 X85.3270 Y8.5054
G01 X75.2894 Y18.5429
G00 Z5.0000


(No. 9: Hole 13)
G00 X87.4171 Y17.0113 Z5.0000
G00 Z0.5000
G01 Z0.0000 F100
G01 Z-2.1000
G01 X80.5874 Y23.8410
G01 X87.4171 Y30.6708
G01 X94.2469 Y23.8410
G01 X87.4171 Y17.0113
G01 Z-4.2000
G01 X80.5874 Y23.8410
G01 X87.4171 Y30.6708
G01 X94.2469 Y23.8410
G01 X87.4171 Y17.0113
G01 Z-5.0000
G01 X80.5874 Y23.8410
G01 X87.4171 Y30.6708
G01 X94.2469 Y23.8410
G01 X87.4171 Y17.0113
G00 Z5.0000


(No. 10: Hole 16)
G00 X98.0132 Y27.6073 Z5.0000
G00 Z0.5000
G01 Z0.0000 F100
G01 Z-2.1000
G01 X75.2893 Y50.3311
G01 X76.8211 Y51.8629
G01 X99.5449 Y29.1390
G01 X98.0132 Y27.6073
G01 Z-4.2000
G01 X75.2893 Y50.3311
G01 X76.8211 Y51.8629
G01 X99.5449 Y29.1390
G01 X98.0132 Y27.6073
G01 Z-5.0000
G01 X75.2893 Y50.3311
G01 X76.8211 Y51.8629
G01 X99.5449 Y29.1390
G01 X98.0132 Y27.6073
G00 Z5.0000


(No. 11: Hole 18)
G00 X103.3112 Y32.9053 Z5.0000
G00 Z0.5000
G01 Z0.0000 F100
G01 Z-2.1000
G01 X96.4814 Y39.7351
G01 X103.3112 Y46.5648
G01 X110.1409 Y39.7351
G01 X103.3112 Y32.9053
G01 Z-4.2000
G01 X96.4814 Y39.7351
G01 X103.3112 Y46.5648
G01 X110.1409 Y39.7351
G01 X103.3112 Y32.9053
G01 Z-5.0000
G01 X96.4814 Y39.7351
G01 X103.3112 Y46.5648
G01 X110.1409 Y39.7351
G01 X103.3112 Y32.9053
G00 Z5.0000


(No. 12: Hole 21)
G00 X107.0774 Y18.5429 Z5.0000
G00 Z0.5000
G01 Z0.0000 F100
G01 Z-2.1000
G01 X108.6091 Y20.0746
G01 X118.6466 Y10.0370
G03 X119.7638 I0.5586 J0.5586
G01 X129.8014 Y20.0746
G01 X131.3331 Y18.5429
G01 X121.2955 Y8.5054
G01 X119.2052 Y6.4151
G01 X117.1220 Y8.4983
G01 X107.0774 Y18.5429
G01 Z-4.2000
G01 X108.6091 Y20.0746
G01 X118.6466 Y10.0370
G03 X119.7638 I0.5586 J0.5586
G01 X129.8014 Y20.0746
G01 X131.3331 Y18.5429
G01 X121.2955 Y8.5054
G01 X119.2052 Y6.4151
G01 X117.1220 Y8.4983
G01 X107.0774 Y18.5429
G01 Z-5.0000
G01 X108.6091 Y20.0746
G01 X118.6466 Y10.0370
G03 X119.7638 I0.5586 J0.5586
G01 X129.8014 Y20.0746
G01 X131.3331 Y18.5429
G01 X121.2955 Y8.5054
G01 X119.2052 Y6.4151
G01 X117.1220 Y8.4983
G01 X107.0774 Y18.5429
G00 Z5.0000


(No. 13: Hole 22)
G00 X119.2052 Y17.0113 Z5.0000
G00 Z0.5000
G01 Z0.0000 F100
G01 Z-2.1000
G01 X112.3754 Y23.8410
G01 X119.2052 Y30.6708
G01 X126.0350 Y23.8410
G01 X119.2052 Y17.0113
G01 Z-4.2000
G01 X112.3754 Y23.8410
G01 X119.2052 Y30.6708
G01 X126.0350 Y23.8410
G01 X119.2052 Y17.0113
G01 Z-5.0000
G01 X112.3754 Y23.8410
G01 X119.2052 Y30.6708
G01 X126.0350 Y23.8410
G01 X119.2052 Y17.0113
G00 Z5.0000


(No. 14: Hole 19)
G00 X135.0992 Y22.3093 Z5.0000
G00 Z0.5000
G01 Z0.0000 F100
G01 Z-2.1000
G01 X107.0774 Y50.3311
G01 X108.6092 Y51.8629
G01 X136.6310 Y23.8410
G01 X135.0992 Y22.3093
G01 Z-4.2000
G01 X107.0774 Y50.3311
G01 X108.6092 Y51.8629
G01 X136.6310 Y23.8410
G01 X135.0992 Y22.3093
G01 Z-5.0000
G01 X107.0774 Y50.3311
G01 X108.6092 Y51.8629
G01 X136.6310 Y23.8410
G01 X135.0992 Y22.3093
G00 Z5.0000


(No. 15: Hole 20)
G00 X119.2052 Y48.7993 Z5.0000
G00 Z0.5000
G01 Z0.0000 F100
G01 Z-2.1000
G01 X112.3754 Y55.6291
G01 X119.2052 Y62.4589
G01 X126.0350 Y55.6291
G01 X119.2052 Y48.7993
G01 Z-4.2000
G01 X112.3754 Y55.6291
G01 X119.2052 Y62.4589
G01 X126.0350 Y55.6291
G01 X119.2052 Y48.7993
G01 Z-5.0000
G01 X112.3754 Y55.6291
G01 X119.2052 Y62.4589
G01 X126.0350 Y55.6291
G01 X119.2052 Y48.7993
G00 Z5.0000


(No. 16: Hole 17)
G00 X91.1834 Y45.0331 Z5.0000
G00 Z0.5000
G01 Z0.0000 F100
G01 Z-2.1000
G01 X117.1149 Y70.9646
G01 X119.2052 Y73.0549
G01 X121.2955 Y70.9646
G01 X134.5406 Y57.7195
G01 X136.6309 Y55.6292
G01 X134.5406 Y53.5389
G01 X124.5030 Y43.5014
G01 X122.9714 Y45.0331
G01 X133.0089 Y55.0706
G03 Y56.1878 I-0.5586 J0.5586
G01 X119.7638 Y69.4329
G03 X118.6466 I-0.5586 J-0.5586
G01 X92.7151 Y43.5014
G01 X91.1834 Y45.0331
G01 Z-4.2000
G01 X117.1149 Y70.9646
G01 X119.2052 Y73.0549
G01 X121.2955 Y70.9646
G01 X134.5406 Y57.7195
G01 X136.6309 Y55.6292
G01 X134.5406 Y53.5389
G01 X124.5030 Y43.5014
G01 X122.9714 Y45.0331
G01 X133.0089 Y55.0706
G03 Y56.1878 I-0.5586 J0.5586
G01 X119.7638 Y69.4329
G03 X118.6466 I-0.5586 J-0.5586
G01 X92.7151 Y43.5014
G01 X91.1834 Y45.0331
G01 Z-5.0000
G01 X117.1149 Y70.9646
G01 X119.2052 Y73.0549
G01 X121.2955 Y70.9646
G01 X134.5406 Y57.7195
G01 X136.6309 Y55.6292
G01 X134.5406 Y53.5389
G01 X124.5030 Y43.5014
G01 X122.9714 Y45.0331
G01 X133.0089 Y55.0706
G03 Y56.1878 I-0.5586 J0.5586
G01 X119.7638 Y69.4329
G03 X118.6466 I-0.5586 J-0.5586
G01 X92.7151 Y43.5014
G01 X91.1834 Y45.0331
G00 Z5.0000


(No. 17: Hole 15)
G00 X87.4171 Y48.7993 Z5.0000
G00 Z0.5000
G01 Z0.0000 F100
G01 Z-2.1000
G01 X80.5874 Y55.6291
G01 X87.4171 Y62.4589
G01 X94.2469 Y55.6291
G01 X87.4171 Y48.7993
G01 Z-4.2000
G01 X80.5874 Y55.6291
G01 X87.4171 Y62.4589
G01 X94.2469 Y55.6291
G01 X87.4171 Y48.7993
G01 Z-5.0000
G01 X80.5874 Y55.6291
G01 X87.4171 Y62.4589
G01 X94.2469 Y55.6291
G01 X87.4171 Y48.7993
G00 Z5.0000


(No. 18: Hole 9)
G00 X59.3955 Y45.0331 Z5.0000
G00 Z0.5000
G01 Z0.0000 F100
G01 Z-2.1000
G01 X85.3270 Y70.9646
G01 X87.4173 Y73.0549
G01 X89.5076 Y70.9646
G01 X99.5451 Y60.9271
G01 X98.0130 Y59.3953
G01 X87.9759 Y69.4329
G03 X86.8587 I-0.5586 J-0.5586
G01 X60.9271 Y43.5014
G01 X59.3955 Y45.0331
G01 Z-4.2000
G01 X85.3270 Y70.9646
G01 X87.4173 Y73.0549
G01 X89.5076 Y70.9646
G01 X99.5451 Y60.9271
G01 X98.0130 Y59.3953
G01 X87.9759 Y69.4329
G03 X86.8587 I-0.5586 J-0.5586
G01 X60.9271 Y43.5014
G01 X59.3955 Y45.0331
G01 Z-5.0000
G01 X85.3270 Y70.9646
G01 X87.4173 Y73.0549
G01 X89.5076 Y70.9646
G01 X99.5451 Y60.9271
G01 X98.0130 Y59.3953
G01 X87.9759 Y69.4329
G03 X86.8587 I-0.5586 J-0.5586
G01 X60.9271 Y43.5014
G01 X59.3955 Y45.0331
G00 Z5.0000


(No. 19: Hole 8)
G00 X55.6291 Y48.7993 Z5.0000
G00 Z0.5000
G01 Z0.0000 F100
G01 Z-2.1000
G01 X48.7993 Y55.6291
G01 X55.6291 Y62.4589
G01 X62.4589 Y55.6291
G01 X55.6291 Y48.7993
G01 Z-4.2000
G01 X48.7993 Y55.6291
G01 X55.6291 Y62.4589
G01 X62.4589 Y55.6291
G01 X55.6291 Y48.7993
G01 Z-5.0000
G01 X48.7993 Y55.6291
G01 X55.6291 Y62.4589
G01 X62.4589 Y55.6291
G01 X55.6291 Y48.7993
G00 Z5.0000


(No. 20: Hole 6)
G00 X46.5648 Y39.7351 Z5.0000
G00 Z0.5000
G01 Z0.0000 F100
G01 Z-2.1000
G01 X39.7351 Y32.9053
G01 X32.9053 Y39.7351
G01 X39.7351 Y46.5648
G01 X46.5648 Y39.7351
G01 Z-4.2000
G01 X39.7351 Y32.9053
G01 X32.9053 Y39.7351
G01 X39.7351 Y46.5648
G01 X46.5648 Y39.7351
G01 Z-5.0000
G01 X39.7351 Y32.9053
G01 X32.9053 Y39.7351
G01 X39.7351 Y46.5648
G01 X46.5648 Y39.7351
G00 Z5.0000


(No. 21: Hole 5)
G00 X29.1392 Y43.5014 Z5.0000
G00 Z0.5000
G01 Z0.0000 F100
G01 Z-2.1000
G01 X27.6075 Y45.0331
G01 X53.5385 Y70.9645
G01 X55.6293 Y73.0549
G01 X57.7196 Y70.9646
G01 X67.7566 Y60.9271
G01 X66.2250 Y59.3954
G01 X56.1880 Y69.4329
G03 X55.0707 I-0.5586 J-0.5586
G01 X29.1392 Y43.5014
G01 Z-4.2000
G01 X27.6075 Y45.0331
G01 X53.5385 Y70.9645
G01 X55.6293 Y73.0549
G01 X57.7196 Y70.9646
G01 X67.7566 Y60.9271
G01 X66.2250 Y59.3954
G01 X56.1880 Y69.4329
G03 X55.0707 I-0.5586 J-0.5586
G01 X29.1392 Y43.5014
G01 Z-5.0000
G01 X27.6075 Y45.0331
G01 X53.5385 Y70.9645
G01 X55.6293 Y73.0549
G01 X57.7196 Y70.9646
G01 X67.7566 Y60.9271
G01 X66.2250 Y59.3954
G01 X56.1880 Y69.4329
G03 X55.0707 I-0.5586 J-0.5586
G01 X29.1392 Y43.5014
G00 Z5.0000


(No. 22: Hole 3)
G00 X30.6708 Y55.6291 Z5.0000
G00 Z0.5000
G01 Z0.0000 F100
G01 Z-2.1000
G01 X23.8410 Y48.7993
G01 X17.0113 Y55.6291
G01 X23.8410 Y62.4589
G01 X30.6708 Y55.6291
G01 Z-4.2000
G01 X23.8410 Y48.7993
G01 X17.0113 Y55.6291
G01 X23.8410 Y62.4589
G01 X30.6708 Y55.6291
G01 Z-5.0000
G01 X23.8410 Y48.7993
G01 X17.0113 Y55.6291
G01 X23.8410 Y62.4589
G01 X30.6708 Y55.6291
G00 Z5.0000


(No. 23: Part 1)
G00 X39.7351 Y14.7768 Z5.0000
G00 Z0.5000
G01 Z0.0000 F100
G01 Z-2.1000
G01 X55.0705 Y-0.5586
G03 X56.1877 I0.5586 J0.5586
G01 X71.5231 Y14.7768
G01 X86.8585 Y-0.5586
G03 X87.9758 I0.5586 J0.5586
G01 X103.3112 Y14.7768
G01 X118.6466 Y-0.5586
G03 X119.7638 I0.5586 J0.5586
G01 X143.6048 Y23.2824
G03 Y24.3997 I-0.5586 J0.5586
G01 X128.2694 Y39.7351
G01 X143.6048 Y55.0705
G03 Y56.1877 I-0.5586 J0.5586
G01 X119.7638 Y80.0287
G03 X118.6466 I-0.5586 J-0.5586
G01 X103.3112 Y64.6933
G01 X87.9758 Y80.0287
G03 X86.8585 I-0.5586 J-0.5586
G01 X71.5231 Y64.6933
G01 X56.1877 Y80.0287
G03 X55.0705 I-0.5586 J-0.5586
G01 X39.7351 Y64.6933
G01 X24.3997 Y80.0287
G03 X23.2824 I-0.5586 J-0.5586
G01 X-0.5586 Y56.1877
G03 Y55.0705 I0.5586 J-0.5586
G01 X14.7768 Y39.7351
G01 X-0.5586 Y24.3997
G03 Y23.2824 I0.5586 J-0.5586
G01 X23.2824 Y-0.5586
G03 X24.3997 I0.5586 J0.5586
G01 X39.7351 Y14.7768
G01 Z-4.2000
G01 X55.0705 Y-0.5586
G03 X56.1877 I0.5586 J0.5586
G01 X71.5231 Y14.7768
G01 X86.8585 Y-0.5586
G03 X87.9758 I0.5586 J0.5586
G01 X103.3112 Y14.7768
G01 X118.6466 Y-0.5586
G03 X119.7638 I0.5586 J0.5586
G01 X143.6048 Y23.2824
G03 Y24.3997 I-0.5586 J0.5586
G01 X128.2694 Y39.7351
G01 X143.6048 Y55.0705
G03 Y56.1877 I-0.5586 J0.5586
G01 X119.7638 Y80.0287
G03 X118.6466 I-0.5586 J-0.5586
G01 X103.3112 Y64.6933
G01 X87.9758 Y80.0287
G03 X86.8585 I-0.5586 J-0.5586
G01 X71.5231 Y64.6933
G01 X56.1877 Y80.0287
G03 X55.0705 I-0.5586 J-0.5586
G01 X39.7351 Y64.6933
G01 X24.3997 Y80.0287
G03 X23.2824 I-0.5586 J-0.5586
G01 X-0.5586 Y56.1877
G03 Y55.0705 I0.5586 J-0.5586
G01 X14.7768 Y39.7351
G01 X-0.5586 Y24.3997
G03 Y23.2824 I0.5586 J-0.5586
G01 X23.2824 Y-0.5586
G03 X24.3997 I0.5586 J0.5586
G01 X39.7351 Y14.7768
G01 Z-5.0000
G01 X55.0705 Y-0.5586
G03 X56.1877 I0.5586 J0.5586
G01 X71.5231 Y14.7768
G01 X86.8585 Y-0.5586
G03 X87.9758 I0.5586 J0.5586
G01 X103.3112 Y14.7768
G01 X118.6466 Y-0.5586
G03 X119.7638 I0.5586 J0.5586
G01 X143.6048 Y23.2824
G03 Y24.3997 I-0.5586 J0.5586
G01 X128.2694 Y39.7351
G01 X143.6048 Y55.0705
G03 Y56.1877 I-0.5586 J0.5586
G01 X119.7638 Y80.0287
G03 X118.6466 I-0.5586 J-0.5586
G01 X103.3112 Y64.6933
G01 X87.9758 Y80.0287
G03 X86.8585 I-0.5586 J-0.5586
G01 X71.5231 Y64.6933
G01 X56.1877 Y80.0287
G03 X55.0705 I-0.5586 J-0.5586
G01 X39.7351 Y64.6933
G01 X24.3997 Y80.0287
G03 X23.2824 I-0.5586 J-0.5586
G01 X-0.5586 Y56.1877
G03 Y55.0705 I0.5586 J-0.5586
G01 X14.7768 Y39.7351
G01 X-0.5586 Y24.3997
G03 Y23.2824 I0.5586 J-0.5586
G01 X23.2824 Y-0.5586
G03 X24.3997 I0.5586 J0.5586
G01 X39.7351 Y14.7768
G00 Z5.0000
G00 X0.0000 Y0.0000

M05
M30
