(Project threet)
(Created by Estlcam version 11 build 11.244)
(Machining time about 00:29:08 hours)

(Required tools:)
(three)
G21
G90
G94
M03 S8000
G00 Z5.0000


(No. 1: Hole 1)
G00 X4.6088 Y4.4518
G00 Z0.5000
G01 Z0.0000 F100 S8000
G01 Z-2.1000
G02 X4.0199 Y10.7785 I3.3384 J3.5015
G01 X4.0353 Y10.7631
G03 X11.3585 Y4.5459 I3.9218 J-2.8021
G01 X17.6411 Y10.8279
G01 X17.6633 Y10.8057
G01 X11.3892 Y4.5316
G02 X4.6088 Y4.4518 I-3.4310 J3.4265
G01 Z-4.2000
G02 X4.0199 Y10.7785 I3.3384 J3.5015
G01 X4.0353 Y10.7631
G03 X11.3585 Y4.5459 I3.9218 J-2.8021
G01 X17.6411 Y10.8279
G01 X17.6633 Y10.8057
G01 X11.3892 Y4.5316
G02 X4.6088 Y4.4518 I-3.4310 J3.4265
G01 Z-6.0000
G02 X4.0199 Y10.7785 I3.3384 J3.5015
G01 X4.0353 Y10.7631
G03 X11.3585 Y4.5459 I3.9218 J-2.8021
G01 X17.6411 Y10.8279
G01 X17.6633 Y10.8057
G01 X11.3892 Y4.5316
G02 X4.6088 Y4.4518 I-3.4310 J3.4265
G00 Z5.0000


(No. 2: Hole 2)
G00 X6.8086 Y6.8068 Z5.0000
G00 Z0.5000
G01 Z0.0000 F100
G01 Z-2.1000
G02 X6.3316 Y7.9499 I1.1439 J1.1485
G01 X6.3310 Y7.9352
G02 X6.3977 Y8.4007 I1.4050 J0.0361
G01 X8.4007 Y6.3977
G02 X7.9660 Y6.3316 I-0.4293 J1.3599
G01 X7.9807 Y6.3309
G02 X6.8086 Y6.8068 I-0.0225 J1.6258
G01 Z-4.2000
G02 X6.3316 Y7.9499 I1.1439 J1.1485
G01 X6.3310 Y7.9352
G02 X6.3977 Y8.4007 I1.4050 J0.0361
G01 X8.4007 Y6.3977
G02 X7.9660 Y6.3316 I-0.4293 J1.3599
G01 X7.9807 Y6.3309
G02 X6.8086 Y6.8068 I-0.0225 J1.6258
G01 Z-6.0000
G02 X6.3316 Y7.9499 I1.1439 J1.1485
G01 X6.3310 Y7.9352
G02 X6.3977 Y8.4007 I1.4050 J0.0361
G01 X8.4007 Y6.3977
G02 X7.9660 Y6.3316 I-0.4293 J1.3599
G01 X7.9807 Y6.3309
G02 X6.8086 Y6.8068 I-0.0225 J1.6258
G00 Z5.0000


(No. 3: Hole 4)
G00 X10.8278 Y8.5275 Z5.0000
G00 Z0.5000
G01 Z0.0000 F100
G01 Z-2.1000
G01 X10.8057 Y8.5054
G01 X4.5308 Y14.7803
G02 X4.0061 Y24.4629 I5.1220 J5.1331
G01 X4.0212 Y24.4478
G03 X4.5480 Y14.8074 I5.6499 J-4.5259
G01 X10.8278 Y8.5275
G01 Z-4.2000
G01 X10.8057 Y8.5054
G01 X4.5308 Y14.7803
G02 X4.0061 Y24.4629 I5.1220 J5.1331
G01 X4.0212 Y24.4478
G03 X4.5480 Y14.8074 I5.6499 J-4.5259
G01 X10.8278 Y8.5275
G01 Z-6.0000
G01 X10.8057 Y8.5054
G01 X4.5308 Y14.7803
G02 X4.0061 Y24.4629 I5.1220 J5.1331
G01 X4.0212 Y24.4478
G03 X4.5480 Y14.8074 I5.6499 J-4.5259
G01 X10.8278 Y8.5275
G00 Z5.0000


(No. 4: Hole 15)
G00 X15.3760 Y4.0061 Z5.0000
G00 Z0.5000
G01 Z0.0000 F100
G01 Z-2.1000
G01 X15.3911 Y4.0212
G03 X25.0314 Y4.5480 I4.5259 J5.6500
G01 X31.3113 Y10.8278
G01 X31.3335 Y10.8057
G01 X25.0586 Y4.5308
G02 X15.3760 Y4.0061 I-5.1331 J5.1220
G01 Z-4.2000
G01 X15.3911 Y4.0212
G03 X25.0314 Y4.5480 I4.5259 J5.6500
G01 X31.3113 Y10.8278
G01 X31.3335 Y10.8057
G01 X25.0586 Y4.5308
G02 X15.3760 Y4.0061 I-5.1331 J5.1220
G01 Z-6.0000
G01 X15.3911 Y4.0212
G03 X25.0314 Y4.5480 I4.5259 J5.6500
G01 X31.3113 Y10.8278
G01 X31.3335 Y10.8057
G01 X25.0586 Y4.5308
G02 X15.3760 Y4.0061 I-5.1331 J5.1220
G00 Z5.0000


(No. 5: Hole 14)
G00 X17.6795 Y6.3010 Z5.0000
G00 Z0.5000
G01 Z0.0000 F100
G01 Z-2.1000
G01 X19.9195 Y8.5492
G01 X22.1635 Y6.3057
G02 X17.6795 Y6.3010 I-2.2454 J3.3533
G01 Z-4.2000
G01 X19.9195 Y8.5492
G01 X22.1635 Y6.3057
G02 X17.6795 Y6.3010 I-2.2454 J3.3533
G01 Z-6.0000
G01 X19.9195 Y8.5492
G01 X22.1635 Y6.3057
G02 X17.6795 Y6.3010 I-2.2454 J3.3533
G00 Z5.0000


(No. 6: Hole 5)
G00 X15.3899 Y13.0898 Z5.0000
G00 Z0.5000
G01 Z0.0000 F100
G01 Z-2.1000
G01 X13.0843 Y10.7837
G01 X10.7809 Y13.0871
G02 X11.0169 Y13.4129 I1.4801 J-0.8238
G03 X13.0834 Y17.8622 I-8.1814 J6.5044
G01 X13.0648 Y22.0675
G03 X10.7637 Y26.7320 I-10.2283 J-2.1460
G01 X10.7782 Y26.7491
G01 X13.0843 Y29.0551
G01 X15.3873 Y26.7517
G02 X15.1512 Y26.4257 I-1.4836 J0.8262
G03 X13.0852 Y21.9762 I8.1842 J-6.5046
G01 X13.1038 Y17.7714
G03 X15.4045 Y13.1067 I10.2306 J2.1463
G01 X15.3899 Y13.0898
G01 Z-4.2000
G01 X13.0843 Y10.7837
G01 X10.7809 Y13.0871
G02 X11.0169 Y13.4129 I1.4801 J-0.8238
G03 X13.0834 Y17.8622 I-8.1814 J6.5044
G01 X13.0648 Y22.0675
G03 X10.7637 Y26.7320 I-10.2283 J-2.1460
G01 X10.7782 Y26.7491
G01 X13.0843 Y29.0551
G01 X15.3873 Y26.7517
G02 X15.1512 Y26.4257 I-1.4836 J0.8262
G03 X13.0852 Y21.9762 I8.1842 J-6.5046
G01 X13.1038 Y17.7714
G03 X15.4045 Y13.1067 I10.2306 J2.1463
G01 X15.3899 Y13.0898
G01 Z-6.0000
G01 X13.0843 Y10.7837
G01 X10.7809 Y13.0871
G02 X11.0169 Y13.4129 I1.4801 J-0.8238
G03 X13.0834 Y17.8622 I-8.1814 J6.5044
G01 X13.0648 Y22.0675
G03 X10.7637 Y26.7320 I-10.2283 J-2.1460
G01 X10.7782 Y26.7491
G01 X13.0843 Y29.0551
G01 X15.3873 Y26.7517
G02 X15.1512 Y26.4257 I-1.4836 J0.8262
G03 X13.0852 Y21.9762 I8.1842 J-6.5046
G01 X13.1038 Y17.7714
G03 X15.4045 Y13.1067 I10.2306 J2.1463
G01 X15.3899 Y13.0898
G00 Z5.0000


(No. 7: Hole 12)
G00 X17.8910 Y15.1106 Z5.0000
G00 Z0.5000
G01 Z0.0000 F100
G01 Z-2.1000
G02 X17.6766 Y24.4629 I5.4323 J4.8031
G01 X17.6914 Y24.4481
G03 X18.2181 Y14.8074 I5.6528 J-4.5259
G01 X24.4982 Y8.5274
G01 X24.4764 Y8.5055
G01 X18.2016 Y14.7803
G02 X17.8910 Y15.1106 I5.1470 J5.1510
G01 Z-4.2000
G02 X17.6766 Y24.4629 I5.4323 J4.8031
G01 X17.6914 Y24.4481
G03 X18.2181 Y14.8074 I5.6528 J-4.5259
G01 X24.4982 Y8.5274
G01 X24.4764 Y8.5055
G01 X18.2016 Y14.7803
G02 X17.8910 Y15.1106 I5.1470 J5.1510
G01 Z-6.0000
G02 X17.6766 Y24.4629 I5.4323 J4.8031
G01 X17.6914 Y24.4481
G03 X18.2181 Y14.8074 I5.6528 J-4.5259
G01 X24.4982 Y8.5274
G01 X24.4764 Y8.5055
G01 X18.2016 Y14.7803
G02 X17.8910 Y15.1106 I5.1470 J5.1510
G00 Z5.0000


(No. 8: Hole 13)
G00 X19.9237 Y17.7663 Z5.0000
G00 Z0.5000
G01 Z0.0000 F100
G01 Z-2.1000
G01 X19.9070 Y17.7791
G02 X19.9150 Y22.0726 I3.4312 J2.1404
G01 X19.9320 Y22.0598
G02 X19.9237 Y17.7663 I-3.4313 J-2.1402
G01 Z-4.2000
G01 X19.9070 Y17.7791
G02 X19.9150 Y22.0726 I3.4312 J2.1404
G01 X19.9320 Y22.0598
G02 X19.9237 Y17.7663 I-3.4313 J-2.1402
G01 Z-6.0000
G01 X19.9070 Y17.7791
G02 X19.9150 Y22.0726 I3.4312 J2.1404
G01 X19.9320 Y22.0598
G02 X19.9237 Y17.7663 I-3.4313 J-2.1402
G00 Z5.0000


(No. 9: Hole 9)
G00 X22.1622 Y15.3760 Z5.0000
G00 Z0.5000
G01 Z0.0000 F100
G01 Z-2.1000
G01 X22.1474 Y15.3908
G03 X21.6207 Y25.0314 I-5.6528 J4.5259
G01 X15.3406 Y31.3115
G01 X15.3625 Y31.3333
G01 X21.6373 Y25.0585
G02 X22.1622 Y15.3760 I-5.1225 J-5.1332
G01 Z-4.2000
G01 X22.1474 Y15.3908
G03 X21.6207 Y25.0314 I-5.6528 J4.5259
G01 X15.3406 Y31.3115
G01 X15.3625 Y31.3333
G01 X21.6373 Y25.0585
G02 X22.1622 Y15.3760 I-5.1225 J-5.1332
G01 Z-6.0000
G01 X22.1474 Y15.3908
G03 X21.6207 Y25.0314 I-5.6528 J4.5259
G01 X15.3406 Y31.3115
G01 X15.3625 Y31.3333
G01 X21.6373 Y25.0585
G02 X22.1622 Y15.3760 I-5.1225 J-5.1332
G00 Z5.0000


(No. 10: Hole 18)
G00 X26.7546 Y10.7837 Z5.0000
G00 Z0.5000
G01 Z0.0000 F100
G01 Z-2.1000
G01 X24.4515 Y13.0872
G02 X24.6876 Y13.4131 I1.4836 J-0.8262
G03 X26.7537 Y17.8626 I-8.1842 J6.5046
G01 X26.7350 Y22.0674
G03 X24.4343 Y26.7321 I-10.2306 J-2.1463
G01 X24.4489 Y26.7490
G01 X26.7546 Y29.0551
G01 X29.0580 Y26.7517
G02 X28.8220 Y26.4259 I-1.4801 J0.8238
G03 X26.7555 Y21.9766 I8.1814 J-6.5044
G01 X26.7740 Y17.7714
G03 X29.0751 Y13.1068 I10.2283 J2.1460
G01 X29.0606 Y13.0898
G01 X26.7546 Y10.7837
G01 Z-4.2000
G01 X24.4515 Y13.0872
G02 X24.6876 Y13.4131 I1.4836 J-0.8262
G03 X26.7537 Y17.8626 I-8.1842 J6.5046
G01 X26.7350 Y22.0674
G03 X24.4343 Y26.7321 I-10.2306 J-2.1463
G01 X24.4489 Y26.7490
G01 X26.7546 Y29.0551
G01 X29.0580 Y26.7517
G02 X28.8220 Y26.4259 I-1.4801 J0.8238
G03 X26.7555 Y21.9766 I8.1814 J-6.5044
G01 X26.7740 Y17.7714
G03 X29.0751 Y13.1068 I10.2283 J2.1460
G01 X29.0606 Y13.0898
G01 X26.7546 Y10.7837
G01 Z-6.0000
G01 X24.4515 Y13.0872
G02 X24.6876 Y13.4131 I1.4836 J-0.8262
G03 X26.7537 Y17.8626 I-8.1842 J6.5046
G01 X26.7350 Y22.0674
G03 X24.4343 Y26.7321 I-10.2306 J-2.1463
G01 X24.4489 Y26.7490
G01 X26.7546 Y29.0551
G01 X29.0580 Y26.7517
G02 X28.8220 Y26.4259 I-1.4801 J0.8238
G03 X26.7555 Y21.9766 I8.1814 J-6.5044
G01 X26.7740 Y17.7714
G03 X29.0751 Y13.1068 I10.2283 J2.1460
G01 X29.0606 Y13.0898
G01 X26.7546 Y10.7837
G00 Z5.0000


(No. 11: Hole 17)
G00 X31.4381 Y6.3977 Z5.0000
G00 Z0.5000
G01 Z0.0000 F100
G01 Z-2.1000
G01 X33.4411 Y8.4007
G02 X31.4381 Y6.3977 I-1.5536 J-0.4494
G01 Z-4.2000
G01 X33.4411 Y8.4007
G02 X31.4381 Y6.3977 I-1.5536 J-0.4494
G01 Z-6.0000
G01 X33.4411 Y8.4007
G02 X31.4381 Y6.3977 I-1.5536 J-0.4494
G00 Z5.0000


(No. 12: Hole 16)
G00 X29.0603 Y4.0199 Z5.0000
G00 Z0.5000
G01 Z0.0000 F100
G01 Z-2.1000
G01 X29.0757 Y4.0353
G03 X35.2937 Y11.3584 I2.8020 J3.9222
G02 X31.6824 Y14.9769 I71.2694 J74.7395
G02 X31.3468 Y24.4629 I5.3112 J4.9368
G01 X31.3616 Y24.4481
G03 X31.8884 Y14.8074 I5.6528 J-4.5259
G01 X35.3072 Y11.3892
G02 X29.0603 Y4.0199 I-3.4228 J-3.4309
G01 Z-4.2000
G01 X29.0757 Y4.0353
G03 X35.2937 Y11.3584 I2.8020 J3.9222
G02 X31.6824 Y14.9769 I71.2694 J74.7395
G02 X31.3468 Y24.4629 I5.3112 J4.9368
G01 X31.3616 Y24.4481
G03 X31.8884 Y14.8074 I5.6528 J-4.5259
G01 X35.3072 Y11.3892
G02 X29.0603 Y4.0199 I-3.4228 J-3.4309
G01 Z-6.0000
G01 X29.0757 Y4.0353
G03 X35.2937 Y11.3584 I2.8020 J3.9222
G02 X31.6824 Y14.9769 I71.2694 J74.7395
G02 X31.3468 Y24.4629 I5.3112 J4.9368
G01 X31.3616 Y24.4481
G03 X31.8884 Y14.8074 I5.6528 J-4.5259
G01 X35.3072 Y11.3892
G02 X29.0603 Y4.0199 I-3.4228 J-3.4309
G00 Z5.0000


(No. 13: Hole 20)
G00 X35.8331 Y15.3760 Z5.0000
G00 Z0.5000
G01 Z0.0000 F100
G01 Z-2.1000
G01 X35.8183 Y15.3908
G03 X35.2915 Y25.0314 I-5.6528 J4.5259
G01 X29.0110 Y31.3113
G01 X29.0332 Y31.3335
G01 X35.3080 Y25.0586
G02 X35.8331 Y15.3760 I-5.1224 J-5.1333
G01 Z-4.2000
G01 X35.8183 Y15.3908
G03 X35.2915 Y25.0314 I-5.6528 J4.5259
G01 X29.0110 Y31.3113
G01 X29.0332 Y31.3335
G01 X35.3080 Y25.0586
G02 X35.8331 Y15.3760 I-5.1224 J-5.1333
G01 Z-6.0000
G01 X35.8183 Y15.3908
G03 X35.2915 Y25.0314 I-5.6528 J4.5259
G01 X29.0110 Y31.3113
G01 X29.0332 Y31.3335
G01 X35.3080 Y25.0586
G02 X35.8331 Y15.3760 I-5.1224 J-5.1333
G00 Z5.0000


(No. 14: Hole 19)
G00 X33.4916 Y17.9229 Z5.0000
G00 Z0.5000
G01 Z0.0000 F100
G01 Z-2.1000
G02 X33.5852 Y22.0726 I3.5169 J1.9966
G01 X33.6026 Y22.0599
G02 X33.5945 Y17.7665 I-3.4298 J-2.1402
G01 X33.5772 Y17.7791
G01 X33.5336 Y17.8505
G01 X33.4916 Y17.9229
G01 Z-4.2000
G02 X33.5852 Y22.0726 I3.5169 J1.9966
G01 X33.6026 Y22.0599
G02 X33.5945 Y17.7665 I-3.4298 J-2.1402
G01 X33.5772 Y17.7791
G01 X33.5336 Y17.8505
G01 X33.4916 Y17.9229
G01 Z-6.0000
G02 X33.5852 Y22.0726 I3.5169 J1.9966
G01 X33.6026 Y22.0599
G02 X33.5945 Y17.7665 I-3.4298 J-2.1402
G01 X33.5772 Y17.7791
G01 X33.5336 Y17.8505
G01 X33.4916 Y17.9229
G00 Z5.0000


(No. 15: Hole 21)
G00 X33.4411 Y31.4381 Z5.0000
G00 Z0.5000
G01 Z0.0000 F100
G01 Z-2.1000
G01 X31.4381 Y33.4411
G02 X33.4411 Y31.4381 I0.4494 J-1.5536
G01 Z-4.2000
G01 X31.4381 Y33.4411
G02 X33.4411 Y31.4381 I0.4494 J-1.5536
G01 Z-6.0000
G01 X31.4381 Y33.4411
G02 X33.4411 Y31.4381 I0.4494 J-1.5536
G00 Z5.0000


(No. 16: Hole 10)
G00 X22.1593 Y33.5382 Z5.0000
G00 Z0.5000
G01 Z0.0000 F100
G01 Z-2.1000
G01 X19.9193 Y31.2896
G01 X17.6754 Y33.5332
G02 X22.1593 Y33.5382 I2.2458 J-3.3545
G01 Z-4.2000
G01 X19.9193 Y31.2896
G01 X17.6754 Y33.5332
G02 X22.1593 Y33.5382 I2.2458 J-3.3545
G01 Z-6.0000
G01 X19.9193 Y31.2896
G01 X17.6754 Y33.5332
G02 X22.1593 Y33.5382 I2.2458 J-3.3545
G00 Z5.0000


(No. 17: Hole 11)
G00 X22.1977 Y29.0110 Z5.0000
G00 Z0.5000
G01 Z0.0000 F100
G01 Z-2.1000
G01 X22.1756 Y29.0332
G02 X28.5319 Y35.3876 I273.0949 J-266.8217
G02 X35.8192 Y29.0603 I3.3488 J-3.5033
G01 X35.8001 Y29.0789
G03 X28.4782 Y35.2915 I-3.9190 J2.8022
G01 X22.1977 Y29.0110
G01 Z-4.2000
G01 X22.1756 Y29.0332
G02 X28.5319 Y35.3876 I273.0949 J-266.8217
G02 X35.8192 Y29.0603 I3.3488 J-3.5033
G01 X35.8001 Y29.0789
G03 X28.4782 Y35.2915 I-3.9190 J2.8022
G01 X22.1977 Y29.0110
G01 Z-6.0000
G01 X22.1756 Y29.0332
G02 X28.5319 Y35.3876 I273.0949 J-266.8217
G02 X35.8192 Y29.0603 I3.3488 J-3.5033
G01 X35.8001 Y29.0789
G03 X28.4782 Y35.2915 I-3.9190 J2.8022
G01 X22.1977 Y29.0110
G00 Z5.0000


(No. 18: Hole 7)
G00 X8.5275 Y29.0110 Z5.0000
G00 Z0.5000
G01 Z0.0000 F100
G01 Z-2.1000
G01 X8.5054 Y29.0332
G02 X14.8639 Y35.3903 I408.9876 J-402.7140
G02 X24.4559 Y35.8473 I5.0555 J-5.2180
G01 X24.4629 Y35.8331
G01 X24.4481 Y35.8183
G03 X14.8061 Y35.2902 I-4.5258 J-5.6529
G01 X8.5275 Y29.0110
G01 Z-4.2000
G01 X8.5054 Y29.0332
G02 X14.8639 Y35.3903 I408.9876 J-402.7140
G02 X24.4559 Y35.8473 I5.0555 J-5.2180
G01 X24.4629 Y35.8331
G01 X24.4481 Y35.8183
G03 X14.8061 Y35.2902 I-4.5258 J-5.6529
G01 X8.5275 Y29.0110
G01 Z-6.0000
G01 X8.5054 Y29.0332
G02 X14.8639 Y35.3903 I408.9876 J-402.7140
G02 X24.4559 Y35.8473 I5.0555 J-5.2180
G01 X24.4629 Y35.8331
G01 X24.4481 Y35.8183
G03 X14.8061 Y35.2902 I-4.5258 J-5.6529
G01 X8.5275 Y29.0110
G00 Z5.0000


(No. 19: Hole 8)
G00 X8.4007 Y33.4411 Z5.0000
G00 Z0.5000
G01 Z0.0000 F100
G01 Z-2.1000
G01 X6.3977 Y31.4381
G02 X6.3377 Y31.7402 I1.2104 J0.3974
G01 X6.3383 Y31.7261
G02 X8.4007 Y33.4411 I1.6138 J0.1569
G01 Z-4.2000
G01 X6.3977 Y31.4381
G02 X6.3377 Y31.7402 I1.2104 J0.3974
G01 X6.3383 Y31.7261
G02 X8.4007 Y33.4411 I1.6138 J0.1569
G01 Z-6.0000
G01 X6.3977 Y31.4381
G02 X6.3377 Y31.7402 I1.2104 J0.3974
G01 X6.3383 Y31.7261
G02 X8.4007 Y33.4411 I1.6138 J0.1569
G00 Z5.0000


(No. 20: Hole 3)
G00 X6.2535 Y17.7663 Z5.0000
G00 Z0.5000
G01 Z0.0000 F100
G01 Z-2.1000
G01 X6.2366 Y17.7792
G02 X6.2445 Y22.0724 I3.4280 J2.1403
G01 X6.2618 Y22.0598
G02 X6.2535 Y17.7663 I-3.4313 J-2.1402
G01 Z-4.2000
G01 X6.2366 Y17.7792
G02 X6.2445 Y22.0724 I3.4280 J2.1403
G01 X6.2618 Y22.0598
G02 X6.2535 Y17.7663 I-3.4313 J-2.1402
G01 Z-6.0000
G01 X6.2366 Y17.7792
G02 X6.2445 Y22.0724 I3.4280 J2.1403
G01 X6.2618 Y22.0598
G02 X6.2535 Y17.7663 I-3.4313 J-2.1402
G00 Z5.0000


(No. 21: Hole 6)
G00 X8.4920 Y15.3760 Z5.0000
G00 Z0.5000
G01 Z0.0000 F100
G01 Z-2.1000
G01 X8.4772 Y15.3908
G03 X7.9491 Y25.0327 I-5.6529 J4.5258
G01 X4.5323 Y28.4489
G02 X10.7785 Y35.8192 I3.4223 J3.4316
G01 X10.7599 Y35.8001
G03 X4.5481 Y28.4781 I-2.8023 J-3.9186
G02 X8.1112 Y24.9103 I-80.4893 J-83.9457
G02 X8.4920 Y15.3760 I-5.2660 J-4.9851
G01 Z-4.2000
G01 X8.4772 Y15.3908
G03 X7.9491 Y25.0327 I-5.6529 J4.5258
G01 X4.5323 Y28.4489
G02 X10.7785 Y35.8192 I3.4223 J3.4316
G01 X10.7599 Y35.8001
G03 X4.5481 Y28.4781 I-2.8023 J-3.9186
G02 X8.1112 Y24.9103 I-80.4893 J-83.9457
G02 X8.4920 Y15.3760 I-5.2660 J-4.9851
G01 Z-6.0000
G01 X8.4772 Y15.3908
G03 X7.9491 Y25.0327 I-5.6529 J4.5258
G01 X4.5323 Y28.4489
G02 X10.7785 Y35.8192 I3.4223 J3.4316
G01 X10.7599 Y35.8001
G03 X4.5481 Y28.4781 I-2.8023 J-3.9186
G02 X8.1112 Y24.9103 I-80.4893 J-83.9457
G02 X8.4920 Y15.3760 I-5.2660 J-4.9851
G00 Z5.0000


(No. 22: Part 1)
G00 X2.3632 Y2.1841 Z5.0000
G00 Z0.5000
G01 Z0.0000 F100
G01 Z-2.1000
G03 X13.0683 Y1.7511 I5.5950 J5.7762
G01 X13.0841 Y1.7537
G03 X26.7588 Y1.7571 I6.8353 J7.9119
G03 X38.0877 Y13.0683 I5.1200 J6.2010
G01 X38.0851 Y13.0841
G03 X38.0817 Y26.7588 I-7.9119 J6.8353
G03 X26.7705 Y38.0877 I-6.2010 J5.1200
G01 X26.7547 Y38.0851
G03 X13.0800 Y38.0817 I-6.8353 J-7.9119
G03 X1.7511 Y26.7705 I-5.1200 J-6.2010
G01 X1.7537 Y26.7547
G03 X1.7571 Y13.0800 I7.9119 J-6.8353
G03 X2.3632 Y2.1841 I6.2083 J-5.1195
G01 Z-4.2000
G03 X13.0683 Y1.7511 I5.5950 J5.7762
G01 X13.0841 Y1.7537
G03 X26.7588 Y1.7571 I6.8353 J7.9119
G03 X38.0877 Y13.0683 I5.1200 J6.2010
G01 X38.0851 Y13.0841
G03 X38.0817 Y26.7588 I-7.9119 J6.8353
G03 X26.7705 Y38.0877 I-6.2010 J5.1200
G01 X26.7547 Y38.0851
G03 X13.0800 Y38.0817 I-6.8353 J-7.9119
G03 X1.7511 Y26.7705 I-5.1200 J-6.2010
G01 X1.7537 Y26.7547
G03 X1.7571 Y13.0800 I7.9119 J-6.8353
G03 X2.3632 Y2.1841 I6.2083 J-5.1195
G01 Z-6.0000
G03 X13.0683 Y1.7511 I5.5950 J5.7762
G01 X13.0841 Y1.7537
G03 X26.7588 Y1.7571 I6.8353 J7.9119
G03 X38.0877 Y13.0683 I5.1200 J6.2010
G01 X38.0851 Y13.0841
G03 X38.0817 Y26.7588 I-7.9119 J6.8353
G03 X26.7705 Y38.0877 I-6.2010 J5.1200
G01 X26.7547 Y38.0851
G03 X13.0800 Y38.0817 I-6.8353 J-7.9119
G03 X1.7511 Y26.7705 I-5.1200 J-6.2010
G01 X1.7537 Y26.7547
G03 X1.7571 Y13.0800 I7.9119 J-6.8353
G03 X2.3632 Y2.1841 I6.2083 J-5.1195
G00 Z5.0000
G00 X0.0000 Y0.0000

M05
M30
