(Project twobycurves)
(Created by Estlcam version 11 build 11.244)
(Machining time about 00:30:41 hours)

(Required tools:)
(three)
G21
G90
G94
M03 S8000
G00 Z5.0000


(No. 1: Hole 2)
G00 X4.2781 Y4.2740
G00 Z0.5000
G01 Z0.0000 F100 S8000
G01 Z-2.1000
G02 X4.5242 Y12.4933 I4.0008 J3.9936
G01 X4.7050 Y12.3124
G03 X12.0613 Y4.4537 I3.5557 J-4.0440
G01 X20.1009 Y12.4933
G01 X20.2817 Y12.3125
G01 X12.2495 Y4.2803
G02 X4.2781 Y4.2740 I-3.9888 J3.9815
G01 Z-4.2000
G02 X4.5242 Y12.4933 I4.0008 J3.9936
G01 X4.7050 Y12.3124
G03 X12.0613 Y4.4537 I3.5557 J-4.0440
G01 X20.1009 Y12.4933
G01 X20.2817 Y12.3125
G01 X12.2495 Y4.2803
G02 X4.2781 Y4.2740 I-3.9888 J3.9815
G01 Z-5.0000
G02 X4.5242 Y12.4933 I4.0008 J3.9936
G01 X4.7050 Y12.3124
G03 X12.0613 Y4.4537 I3.5557 J-4.0440
G01 X20.1009 Y12.4933
G01 X20.2817 Y12.3125
G01 X12.2495 Y4.2803
G02 X4.2781 Y4.2740 I-3.9888 J3.9815
G00 Z5.0000


(No. 2: Hole 4)
G00 X6.8848 Y6.8604 Z5.0000
G00 Z0.5000
G01 Z0.0000 F100
G01 Z-2.1000
G02 X6.8787 Y9.6557 I1.3758 J1.4007
G01 X7.1203 Y9.8973
G01 X9.8973 Y7.1203
G02 X8.7294 Y6.3539 I-1.7198 J1.3475
G02 X6.8848 Y6.8604 I-0.4689 J1.9041
G01 Z-4.2000
G02 X6.8787 Y9.6557 I1.3758 J1.4007
G01 X7.1203 Y9.8973
G01 X9.8973 Y7.1203
G02 X8.7294 Y6.3539 I-1.7198 J1.3475
G02 X6.8848 Y6.8604 I-0.4689 J1.9041
G01 Z-5.0000
G02 X6.8787 Y9.6557 I1.3758 J1.4007
G01 X7.1203 Y9.8973
G01 X9.8973 Y7.1203
G02 X8.7294 Y6.3539 I-1.7198 J1.3475
G02 X6.8848 Y6.8604 I-0.4689 J1.9041
G00 Z5.0000


(No. 3: Hole 1)
G00 X12.3126 Y9.5357 Z5.0000
G00 Z0.5000
G01 Z0.0000 F100
G01 Z-2.1000
G01 X4.2803 Y17.5679
G02 X12.2475 Y25.5391 I3.9804 J3.9888
G01 X12.4933 Y25.2933
G01 X12.3125 Y25.1124
G03 X4.4537 Y17.7561 I-4.0440 J-3.5557
G01 X12.4933 Y9.7165
G01 X12.3126 Y9.5357
G01 Z-4.2000
G01 X4.2803 Y17.5679
G02 X12.2475 Y25.5391 I3.9804 J3.9888
G01 X12.4933 Y25.2933
G01 X12.3125 Y25.1124
G03 X4.4537 Y17.7561 I-4.0440 J-3.5557
G01 X12.4933 Y9.7165
G01 X12.3126 Y9.5357
G01 Z-5.0000
G01 X4.2803 Y17.5679
G02 X12.2475 Y25.5391 I3.9804 J3.9888
G01 X12.4933 Y25.2933
G01 X12.3125 Y25.1124
G03 X4.4537 Y17.7561 I-4.0440 J-3.5557
G01 X12.4933 Y9.7165
G01 X12.3126 Y9.5357
G00 Z5.0000


(No. 4: Hole 10)
G00 X17.3504 Y4.5499 Z5.0000
G00 Z0.5000
G01 Z0.0000 F100
G01 Z-2.1000
G01 X17.5101 Y4.7100
G02 X17.9152 Y4.4346 I-1.1563 J-2.1364
G03 X28.4457 Y5.2612 I4.7811 J6.5819
G01 X35.6778 Y12.4934
G01 X35.8587 Y12.3125
G01 X28.6311 Y5.0851
G02 X17.3504 Y4.5499 I-5.9344 J5.9304
G01 Z-4.2000
G01 X17.5101 Y4.7100
G02 X17.9152 Y4.4346 I-1.1563 J-2.1364
G03 X28.4457 Y5.2612 I4.7811 J6.5819
G01 X35.6778 Y12.4934
G01 X35.8587 Y12.3125
G01 X28.6311 Y5.0851
G02 X17.3504 Y4.5499 I-5.9344 J5.9304
G01 Z-5.0000
G01 X17.5101 Y4.7100
G02 X17.9152 Y4.4346 I-1.1563 J-2.1364
G03 X28.4457 Y5.2612 I4.7811 J6.5819
G01 X35.6778 Y12.4934
G01 X35.8587 Y12.3125
G01 X28.6311 Y5.0851
G02 X17.3504 Y4.5499 I-5.9344 J5.9304
G00 Z5.0000


(No. 5: Hole 9)
G00 X19.9677 Y7.1666 Z5.0000
G00 Z0.5000
G01 Z0.0000 F100
G01 Z-2.1000
G01 X22.6971 Y9.8973
G01 X25.4246 Y7.1698
G02 X19.9677 Y7.1666 I-2.7308 J3.8384
G01 Z-4.2000
G01 X22.6971 Y9.8973
G01 X25.4246 Y7.1698
G02 X19.9677 Y7.1666 I-2.7308 J3.8384
G01 Z-5.0000
G01 X22.6971 Y9.8973
G01 X25.4246 Y7.1698
G02 X19.9677 Y7.1666 I-2.7308 J3.8384
G00 Z5.0000


(No. 6: Hole 6)
G00 X17.6857 Y14.9087 Z5.0000
G00 Z0.5000
G01 Z0.0000 F100
G01 Z-2.1000
G01 X14.9087 Y12.1317
G01 X12.1317 Y14.9087
G01 X14.9087 Y17.6857
G01 X17.6857 Y14.9087
G01 Z-4.2000
G01 X14.9087 Y12.1317
G01 X12.1317 Y14.9087
G01 X14.9087 Y17.6857
G01 X17.6857 Y14.9087
G01 Z-5.0000
G01 X14.9087 Y12.1317
G01 X12.1317 Y14.9087
G01 X14.9087 Y17.6857
G01 X17.6857 Y14.9087
G00 Z5.0000


(No. 7: Hole 13)
G00 X25.1125 Y17.5049 Z5.0000
G00 Z0.5000
G01 Z0.0000 F100
G01 Z-2.1000
G01 X32.3476 Y24.7399
G02 X43.6160 Y25.2713 I5.9268 J-5.9381
G01 X43.4610 Y25.1073
G02 X43.0559 Y25.3827 I1.1575 J2.1382
G03 X32.5254 Y24.5561 I-4.7811 J-6.5819
G01 X25.2933 Y17.3241
G01 X25.1125 Y17.5049
G01 Z-4.2000
G01 X32.3476 Y24.7399
G02 X43.6160 Y25.2713 I5.9268 J-5.9381
G01 X43.4610 Y25.1073
G02 X43.0559 Y25.3827 I1.1575 J2.1382
G03 X32.5254 Y24.5561 I-4.7811 J-6.5819
G01 X25.2933 Y17.3241
G01 X25.1125 Y17.5049
G01 Z-5.0000
G01 X32.3476 Y24.7399
G02 X43.6160 Y25.2713 I5.9268 J-5.9381
G01 X43.4610 Y25.1073
G02 X43.0559 Y25.3827 I1.1575 J2.1382
G03 X32.5254 Y24.5561 I-4.7811 J-6.5819
G01 X25.2933 Y17.3241
G01 X25.1125 Y17.5049
G00 Z5.0000


(No. 8: Hole 8)
G00 X19.9697 Y22.6476 Z5.0000
G00 Z0.5000
G01 Z0.0000 F100
G01 Z-2.1000
G02 X25.4266 Y22.6509 I2.7308 J-3.8384
G01 X22.6971 Y19.9202
G01 X19.9697 Y22.6476
G01 Z-4.2000
G02 X25.4266 Y22.6509 I2.7308 J-3.8384
G01 X22.6971 Y19.9202
G01 X19.9697 Y22.6476
G01 Z-5.0000
G02 X25.4266 Y22.6509 I2.7308 J-3.8384
G01 X22.6971 Y19.9202
G01 X19.9697 Y22.6476
G00 Z5.0000


(No. 9: Hole 3)
G00 X9.8973 Y22.6971 Z5.0000
G00 Z0.5000
G01 Z0.0000 F100
G01 Z-2.1000
G01 X7.1203 Y19.9202
G02 X6.3539 Y21.0881 I1.3475 J1.7198
G02 X6.8808 Y22.9540 I1.9067 J0.4689
G01 X6.8736 Y22.9464
G02 X9.6557 Y22.9388 I1.3872 J-1.3902
G01 X9.8973 Y22.6971
G01 Z-4.2000
G01 X7.1203 Y19.9202
G02 X6.3539 Y21.0881 I1.3475 J1.7198
G02 X6.8808 Y22.9540 I1.9067 J0.4689
G01 X6.8736 Y22.9464
G02 X9.6557 Y22.9388 I1.3872 J-1.3902
G01 X9.8973 Y22.6971
G01 Z-5.0000
G01 X7.1203 Y19.9202
G02 X6.3539 Y21.0881 I1.3475 J1.7198
G02 X6.8808 Y22.9540 I1.9067 J0.4689
G01 X6.8736 Y22.9464
G02 X9.6557 Y22.9388 I1.3872 J-1.3902
G01 X9.8973 Y22.6971
G00 Z5.0000


(No. 10: Hole 5)
G00 X9.7165 Y17.3241 Z5.0000
G00 Z0.5000
G01 Z0.0000 F100
G01 Z-2.1000
G01 X9.5357 Y17.5049
G01 X16.7708 Y24.7399
G02 X28.0390 Y25.2713 I5.9267 J-5.9378
G01 X27.8842 Y25.1073
G02 X27.4791 Y25.3827 I1.1563 J2.1364
G03 X16.9486 Y24.5561 I-4.7811 J-6.5819
G01 X9.7165 Y17.3241
G01 Z-4.2000
G01 X9.5357 Y17.5049
G01 X16.7708 Y24.7399
G02 X28.0390 Y25.2713 I5.9267 J-5.9378
G01 X27.8842 Y25.1073
G02 X27.4791 Y25.3827 I1.1563 J2.1364
G03 X16.9486 Y24.5561 I-4.7811 J-6.5819
G01 X9.7165 Y17.3241
G01 Z-5.0000
G01 X9.5357 Y17.5049
G01 X16.7708 Y24.7399
G02 X28.0390 Y25.2713 I5.9267 J-5.9378
G01 X27.8842 Y25.1073
G02 X27.4791 Y25.3827 I1.1563 J2.1364
G03 X16.9486 Y24.5561 I-4.7811 J-6.5819
G01 X9.7165 Y17.3241
G00 Z5.0000


(No. 11: Hole 7)
G00 X27.8894 Y9.5356 Z5.0000
G00 Z0.5000
G01 Z0.0000 F100
G01 Z-2.1000
G01 X17.3240 Y20.1010
G01 X17.5049 Y20.2818
G01 X28.0703 Y9.7164
G01 X27.8894 Y9.5356
G01 Z-4.2000
G01 X17.3240 Y20.1010
G01 X17.5049 Y20.2818
G01 X28.0703 Y9.7164
G01 X27.8894 Y9.5356
G01 Z-5.0000
G01 X17.3240 Y20.1010
G01 X17.5049 Y20.2818
G01 X28.0703 Y9.7164
G01 X27.8894 Y9.5356
G00 Z5.0000


(No. 12: Hole 12)
G00 X30.4856 Y12.1317 Z5.0000
G00 Z0.5000
G01 Z0.0000 F100
G01 Z-2.1000
G01 X27.7086 Y14.9087
G01 X30.4856 Y17.6857
G01 X33.2625 Y14.9087
G01 X30.4856 Y12.1317
G01 Z-4.2000
G01 X27.7086 Y14.9087
G01 X30.4856 Y17.6857
G01 X33.2625 Y14.9087
G01 X30.4856 Y12.1317
G01 Z-5.0000
G01 X27.7086 Y14.9087
G01 X30.4856 Y17.6857
G01 X33.2625 Y14.9087
G01 X30.4856 Y12.1317
G00 Z5.0000


(No. 13: Hole 17)
G00 X35.5445 Y7.1666 Z5.0000
G00 Z0.5000
G01 Z0.0000 F100
G01 Z-2.1000
G01 X38.2740 Y9.8973
G01 X41.0015 Y7.1698
G02 X35.5445 Y7.1666 I-2.7308 J3.8384
G01 Z-4.2000
G01 X38.2740 Y9.8973
G01 X41.0015 Y7.1698
G02 X35.5445 Y7.1666 I-2.7308 J3.8384
G01 Z-5.0000
G01 X38.2740 Y9.8973
G01 X41.0015 Y7.1698
G02 X35.5445 Y7.1666 I-2.7308 J3.8384
G00 Z5.0000


(No. 14: Hole 11)
G00 X32.9272 Y4.5499 Z5.0000
G00 Z0.5000
G01 Z0.0000 F100
G01 Z-2.1000
G01 X33.0868 Y4.7100
G02 X33.4920 Y4.4346 I-1.1563 J-2.1364
G03 X44.0224 Y5.2612 I4.7811 J6.5819
G01 X51.2548 Y12.4933
G01 X51.4356 Y12.3125
G01 X44.2082 Y5.0851
G02 X32.9272 Y4.5499 I-5.9345 J5.9308
G01 Z-4.2000
G01 X33.0868 Y4.7100
G02 X33.4920 Y4.4346 I-1.1563 J-2.1364
G03 X44.0224 Y5.2612 I4.7811 J6.5819
G01 X51.2548 Y12.4933
G01 X51.4356 Y12.3125
G01 X44.2082 Y5.0851
G02 X32.9272 Y4.5499 I-5.9345 J5.9308
G01 Z-5.0000
G01 X33.0868 Y4.7100
G02 X33.4920 Y4.4346 I-1.1563 J-2.1364
G03 X44.0224 Y5.2612 I4.7811 J6.5819
G01 X51.2548 Y12.4933
G01 X51.4356 Y12.3125
G01 X44.2082 Y5.0851
G02 X32.9272 Y4.5499 I-5.9345 J5.9308
G00 Z5.0000


(No. 15: Hole 15)
G00 X43.4663 Y9.5356 Z5.0000
G00 Z0.5000
G01 Z0.0000 F100
G01 Z-2.1000
G01 X32.9009 Y20.1010
G01 X33.0817 Y20.2818
G01 X43.6471 Y9.7164
G01 X43.4663 Y9.5356
G01 Z-4.2000
G01 X32.9009 Y20.1010
G01 X33.0817 Y20.2818
G01 X43.6471 Y9.7164
G01 X43.4663 Y9.5356
G01 Z-5.0000
G01 X32.9009 Y20.1010
G01 X33.0817 Y20.2818
G01 X43.6471 Y9.7164
G01 X43.4663 Y9.5356
G00 Z5.0000


(No. 16: Hole 20)
G00 X46.0624 Y12.1317 Z5.0000
G00 Z0.5000
G01 Z0.0000 F100
G01 Z-2.1000
G01 X43.2854 Y14.9087
G01 X46.0624 Y17.6857
G01 X48.8394 Y14.9087
G01 X46.0624 Y12.1317
G01 Z-4.2000
G01 X43.2854 Y14.9087
G01 X46.0624 Y17.6857
G01 X48.8394 Y14.9087
G01 X46.0624 Y12.1317
G01 Z-5.0000
G01 X43.2854 Y14.9087
G01 X46.0624 Y17.6857
G01 X48.8394 Y14.9087
G01 X46.0624 Y12.1317
G00 Z5.0000


(No. 17: Hole 21)
G00 X51.3155 Y6.8787 Z5.0000
G00 Z0.5000
G01 Z0.0000 F100
G01 Z-2.1000
G01 X51.0738 Y7.1203
G01 X53.8508 Y9.8973
G02 X54.6173 Y8.7294 I-1.3475 J-1.7198
G02 X54.0904 Y6.8635 I-1.9067 J-0.4689
G01 X54.0975 Y6.8710
G02 X51.3155 Y6.8787 I-1.3872 J1.3902
G01 Z-4.2000
G01 X51.0738 Y7.1203
G01 X53.8508 Y9.8973
G02 X54.6173 Y8.7294 I-1.3475 J-1.7198
G02 X54.0904 Y6.8635 I-1.9067 J-0.4689
G01 X54.0975 Y6.8710
G02 X51.3155 Y6.8787 I-1.3872 J1.3902
G01 Z-5.0000
G01 X51.0738 Y7.1203
G01 X53.8508 Y9.8973
G02 X54.6173 Y8.7294 I-1.3475 J-1.7198
G02 X54.0904 Y6.8635 I-1.9067 J-0.4689
G01 X54.0975 Y6.8710
G02 X51.3155 Y6.8787 I-1.3872 J1.3902
G00 Z5.0000


(No. 18: Hole 19)
G00 X48.4777 Y4.5241 Z5.0000
G00 Z0.5000
G01 Z0.0000 F100
G01 Z-2.1000
G01 X48.6585 Y4.7050
G03 X56.5173 Y12.0613 I4.0440 J3.5557
G01 X48.4776 Y20.1010
G01 X48.6585 Y20.2819
G01 X56.6907 Y12.2495
G02 X48.7236 Y4.2782 I-3.9804 J-3.9888
G01 X48.4777 Y4.5241
G01 Z-4.2000
G01 X48.6585 Y4.7050
G03 X56.5173 Y12.0613 I4.0440 J3.5557
G01 X48.4776 Y20.1010
G01 X48.6585 Y20.2819
G01 X56.6907 Y12.2495
G02 X48.7236 Y4.2782 I-3.9804 J-3.9888
G01 X48.4777 Y4.5241
G01 Z-5.0000
G01 X48.6585 Y4.7050
G03 X56.5173 Y12.0613 I4.0440 J3.5557
G01 X48.4776 Y20.1010
G01 X48.6585 Y20.2819
G01 X56.6907 Y12.2495
G02 X48.7236 Y4.2782 I-3.9804 J-3.9888
G01 X48.4777 Y4.5241
G00 Z5.0000


(No. 19: Hole 16)
G00 X40.6893 Y17.5049 Z5.0000
G00 Z0.5000
G01 Z0.0000 F100
G01 Z-2.1000
G01 X48.7225 Y25.5381
G02 X56.6927 Y17.5699 I3.9878 J-3.9813
G01 X56.4469 Y17.3241
G01 X56.2660 Y17.5049
G03 X48.9097 Y25.3637 I-3.5557 J4.0440
G01 X40.8701 Y17.3241
G01 X40.6893 Y17.5049
G01 Z-4.2000
G01 X48.7225 Y25.5381
G02 X56.6927 Y17.5699 I3.9878 J-3.9813
G01 X56.4469 Y17.3241
G01 X56.2660 Y17.5049
G03 X48.9097 Y25.3637 I-3.5557 J4.0440
G01 X40.8701 Y17.3241
G01 X40.6893 Y17.5049
G01 Z-5.0000
G01 X48.7225 Y25.5381
G02 X56.6927 Y17.5699 I3.9878 J-3.9813
G01 X56.4469 Y17.3241
G01 X56.2660 Y17.5049
G03 X48.9097 Y25.3637 I-3.5557 J4.0440
G01 X40.8701 Y17.3241
G01 X40.6893 Y17.5049
G00 Z5.0000


(No. 20: Hole 14)
G00 X35.5465 Y22.6476 Z5.0000
G00 Z0.5000
G01 Z0.0000 F100
G01 Z-2.1000
G02 X41.0035 Y22.6509 I2.7308 J-3.8384
G01 X38.2740 Y19.9202
G01 X35.5465 Y22.6476
G01 Z-4.2000
G02 X41.0035 Y22.6509 I2.7308 J-3.8384
G01 X38.2740 Y19.9202
G01 X35.5465 Y22.6476
G01 Z-5.0000
G02 X41.0035 Y22.6509 I2.7308 J-3.8384
G01 X38.2740 Y19.9202
G01 X35.5465 Y22.6476
G00 Z5.0000


(No. 21: Hole 18)
G00 X53.8508 Y19.9202 Z5.0000
G00 Z0.5000
G01 Z0.0000 F100
G01 Z-2.1000
G01 X51.0738 Y22.6971
G02 X52.2417 Y23.4636 I1.7198 J-1.3475
G02 X54.0924 Y20.1618 I0.4690 J-1.9067
G01 X53.8508 Y19.9202
G01 Z-4.2000
G01 X51.0738 Y22.6971
G02 X52.2417 Y23.4636 I1.7198 J-1.3475
G02 X54.0924 Y20.1618 I0.4690 J-1.9067
G01 X53.8508 Y19.9202
G01 Z-5.0000
G01 X51.0738 Y22.6971
G02 X52.2417 Y23.4636 I1.7198 J-1.3475
G02 X54.0924 Y20.1618 I0.4690 J-1.9067
G01 X53.8508 Y19.9202
G00 Z5.0000


(No. 22: Part 1)
G00 X1.9625 Y1.7612 Z5.0000
G00 Z0.5000
G01 Z0.0000 F100
G01 Z-2.1000
G03 X14.9323 Y2.1233 I6.3079 J6.5237
G03 X30.4865 Y2.1429 I7.7659 J8.8947
G03 X45.9414 Y2.0386 I7.7877 J8.8732
G01 X46.0578 Y2.1135
G03 X58.8623 Y14.9087 I6.6476 J6.1521
G03 X46.3129 Y27.9591 I-6.1518 J6.6434
G01 X46.0572 Y27.7034
G01 X46.0388 Y27.6942
G03 X30.4846 Y27.6745 I-7.7659 J-8.8947
G03 X15.0297 Y27.7789 I-7.7877 J-8.8732
G01 X14.9134 Y27.7039
G03 X2.1089 Y14.9087 I-6.6476 J-6.1521
G03 X1.9625 Y1.7612 I6.1625 J-6.6432
G01 Z-4.2000
G03 X14.9323 Y2.1233 I6.3079 J6.5237
G03 X30.4865 Y2.1429 I7.7659 J8.8947
G03 X45.9414 Y2.0386 I7.7877 J8.8732
G01 X46.0578 Y2.1135
G03 X58.8623 Y14.9087 I6.6476 J6.1521
G03 X46.3129 Y27.9591 I-6.1518 J6.6434
G01 X46.0572 Y27.7034
G01 X46.0388 Y27.6942
G03 X30.4846 Y27.6745 I-7.7659 J-8.8947
G03 X15.0297 Y27.7789 I-7.7877 J-8.8732
G01 X14.9134 Y27.7039
G03 X2.1089 Y14.9087 I-6.6476 J-6.1521
G03 X1.9625 Y1.7612 I6.1625 J-6.6432
G01 Z-5.0000
G03 X14.9323 Y2.1233 I6.3079 J6.5237
G03 X30.4865 Y2.1429 I7.7659 J8.8947
G03 X45.9414 Y2.0386 I7.7877 J8.8732
G01 X46.0578 Y2.1135
G03 X58.8623 Y14.9087 I6.6476 J6.1521
G03 X46.3129 Y27.9591 I-6.1518 J6.6434
G01 X46.0572 Y27.7034
G01 X46.0388 Y27.6942
G03 X30.4846 Y27.6745 I-7.7659 J-8.8947
G03 X15.0297 Y27.7789 I-7.7877 J-8.8732
G01 X14.9134 Y27.7039
G03 X2.1089 Y14.9087 I-6.6476 J-6.1521
G03 X1.9625 Y1.7612 I6.1625 J-6.6432
G00 Z5.0000
G00 X0.0000 Y0.0000

M05
M30
