(Project twoarc)
(Created by Estlcam version 11 build 11.244)
(Machining time about 00:19:29 hours)

(Required tools:)
(three)
G21
G90
G94
M03 S8000
G00 Z5.0000


(No. 1: Hole 1)
G00 X5.8897 Y5.7061
G00 Z0.5000
G01 Z0.0000 F100 S8000
G01 Z-2.1000
G02 X5.2625 Y16.8945 I5.7499 J5.9341
G01 X5.9545 Y16.2087
G02 X5.7144 Y15.8292 I-1.5350 J0.7054
G03 X16.7678 Y6.5054 I5.9252 J-4.1894
G01 X27.1870 Y16.9246
G01 X27.8986 Y16.2130
G01 X17.4848 Y5.7982
G02 X5.8897 Y5.7061 I-5.8443 J5.8422
G01 Z-4.2000
G02 X5.2625 Y16.8945 I5.7499 J5.9341
G01 X5.9545 Y16.2087
G02 X5.7144 Y15.8292 I-1.5350 J0.7054
G03 X16.7678 Y6.5054 I5.9252 J-4.1894
G01 X27.1870 Y16.9246
G01 X27.8986 Y16.2130
G01 X17.4848 Y5.7982
G02 X5.8897 Y5.7061 I-5.8443 J5.8422
G01 Z-6.0000
G02 X5.2625 Y16.8945 I5.7499 J5.9341
G01 X5.9545 Y16.2087
G02 X5.7144 Y15.8292 I-1.5350 J0.7054
G03 X16.7678 Y6.5054 I5.9252 J-4.1894
G01 X27.1870 Y16.9246
G01 X27.8986 Y16.2130
G01 X17.4848 Y5.7982
G02 X5.8897 Y5.7061 I-5.8443 J5.8422
G00 Z5.0000


(No. 2: Hole 2)
G00 X9.4283 Y9.4819 Z5.0000
G00 Z0.5000
G01 Z0.0000 F100
G01 Z-2.1000
G02 X8.9744 Y13.1881 I2.1934 J2.1496
G01 X13.1881 Y8.9744
G02 X9.4283 Y9.4819 I-1.5568 J2.6479
G01 Z-4.2000
G02 X8.9744 Y13.1881 I2.1934 J2.1496
G01 X13.1881 Y8.9744
G02 X9.4283 Y9.4819 I-1.5568 J2.6479
G01 Z-6.0000
G02 X8.9744 Y13.1881 I2.1934 J2.1496
G01 X13.1881 Y8.9744
G02 X9.4283 Y9.4819 I-1.5568 J2.6479
G00 Z5.0000


(No. 3: Hole 3)
G00 X16.9246 Y12.5543 Z5.0000
G00 Z0.5000
G01 Z0.0000 F100
G01 Z-2.1000
G01 X16.2130 Y11.8427
G01 X5.7982 Y22.2565
G02 X16.8941 Y34.4785 I5.8416 J5.8444
G01 X16.2089 Y33.7866
G02 X15.8292 Y34.0269 I0.7077 J1.5385
G03 X6.5054 Y22.9735 I-4.1895 J-5.9252
G01 X16.9246 Y12.5543
G01 Z-4.2000
G01 X16.2130 Y11.8427
G01 X5.7982 Y22.2565
G02 X16.8941 Y34.4785 I5.8416 J5.8444
G01 X16.2089 Y33.7866
G02 X15.8292 Y34.0269 I0.7077 J1.5385
G03 X6.5054 Y22.9735 I-4.1895 J-5.9252
G01 X16.9246 Y12.5543
G01 Z-6.0000
G01 X16.2130 Y11.8427
G01 X5.7982 Y22.2565
G02 X16.8941 Y34.4785 I5.8416 J5.8444
G01 X16.2089 Y33.7866
G02 X15.8292 Y34.0269 I0.7077 J1.5385
G03 X6.5054 Y22.9735 I-4.1895 J-5.9252
G01 X16.9246 Y12.5543
G00 Z5.0000


(No. 4: Hole 5)
G00 X15.5004 Y19.8707 Z5.0000
G00 Z0.5000
G01 Z0.0000 F100
G01 Z-2.1000
G01 X19.8707 Y24.2409
G01 X24.2409 Y19.8707
G01 X19.8707 Y15.5004
G01 X15.5004 Y19.8707
G01 Z-4.2000
G01 X19.8707 Y24.2409
G01 X24.2409 Y19.8707
G01 X19.8707 Y15.5004
G01 X15.5004 Y19.8707
G01 Z-6.0000
G01 X19.8707 Y24.2409
G01 X24.2409 Y19.8707
G01 X19.8707 Y15.5004
G01 X15.5004 Y19.8707
G00 Z5.0000


(No. 5: Hole 4)
G00 X12.5543 Y22.8167 Z5.0000
G00 Z0.5000
G01 Z0.0000 F100
G01 Z-2.1000
G01 X11.8427 Y23.5283
G01 X22.2589 Y33.9445
G02 X34.4785 Y22.8472 I5.8425 J-5.8431
G01 X33.7832 Y23.5359
G02 X34.0137 Y23.8934 I1.4824 J-0.7026
G03 X22.9718 Y33.2342 I-5.9121 J4.2080
G01 X12.5543 Y22.8167
G01 Z-4.2000
G01 X11.8427 Y23.5283
G01 X22.2589 Y33.9445
G02 X34.4785 Y22.8472 I5.8425 J-5.8431
G01 X33.7832 Y23.5359
G02 X34.0137 Y23.8934 I1.4824 J-0.7026
G03 X22.9718 Y33.2342 I-5.9121 J4.2080
G01 X12.5543 Y22.8167
G01 Z-6.0000
G01 X11.8427 Y23.5283
G01 X22.2589 Y33.9445
G02 X34.4785 Y22.8472 I5.8425 J-5.8431
G01 X33.7832 Y23.5359
G02 X34.0137 Y23.8934 I1.4824 J-0.7026
G03 X22.9718 Y33.2342 I-5.9121 J4.2080
G01 X12.5543 Y22.8167
G00 Z5.0000


(No. 6: Hole 6)
G00 X13.1881 Y30.7669 Z5.0000
G00 Z0.5000
G01 Z0.0000 F100
G01 Z-2.1000
G01 X8.9744 Y26.5532
G02 X13.1881 Y30.7669 I2.6583 J1.5554
G01 Z-4.2000
G01 X8.9744 Y26.5532
G02 X13.1881 Y30.7669 I2.6583 J1.5554
G01 Z-6.0000
G01 X8.9744 Y26.5532
G02 X13.1881 Y30.7669 I2.6583 J1.5554
G00 Z5.0000


(No. 7: Hole 7)
G00 X30.7669 Y26.5532 Z5.0000
G00 Z0.5000
G01 Z0.0000 F100
G01 Z-2.1000
G01 X26.5532 Y30.7669
G02 X30.7669 Y26.5532 I1.5554 J-2.6584
G01 Z-4.2000
G01 X26.5532 Y30.7669
G02 X30.7669 Y26.5532 I1.5554 J-2.6584
G01 Z-6.0000
G01 X26.5532 Y30.7669
G02 X30.7669 Y26.5532 I1.5554 J-2.6584
G00 Z5.0000


(No. 8: Hole 9)
G00 X26.5532 Y8.9744 Z5.0000
G00 Z0.5000
G01 Z0.0000 F100
G01 Z-2.1000
G01 X30.7669 Y13.1881
G02 X26.5532 Y8.9744 I-2.6583 J-1.5554
G01 Z-4.2000
G01 X30.7669 Y13.1881
G02 X26.5532 Y8.9744 I-2.6583 J-1.5554
G01 Z-6.0000
G01 X30.7669 Y13.1881
G02 X26.5532 Y8.9744 I-2.6583 J-1.5554
G00 Z5.0000


(No. 9: Hole 8)
G00 X22.8468 Y5.2625 Z5.0000
G00 Z0.5000
G01 Z0.0000 F100
G01 Z-2.1000
G01 X23.5326 Y5.9545
G02 X23.9120 Y5.7144 I-0.7058 J-1.5352
G03 X33.2359 Y16.7678 I4.1895 J5.9252
G01 X22.8167 Y27.1870
G01 X23.5283 Y27.8986
G01 X33.9422 Y17.4848
G02 X22.8468 Y5.2625 I-5.8411 J-5.8448
G01 Z-4.2000
G01 X23.5326 Y5.9545
G02 X23.9120 Y5.7144 I-0.7058 J-1.5352
G03 X33.2359 Y16.7678 I4.1895 J5.9252
G01 X22.8167 Y27.1870
G01 X23.5283 Y27.8986
G01 X33.9422 Y17.4848
G02 X22.8468 Y5.2625 I-5.8411 J-5.8448
G01 Z-6.0000
G01 X23.5326 Y5.9545
G02 X23.9120 Y5.7144 I-0.7058 J-1.5352
G03 X33.2359 Y16.7678 I4.1895 J5.9252
G01 X22.8167 Y27.1870
G01 X23.5283 Y27.8986
G01 X33.9422 Y17.4848
G02 X22.8468 Y5.2625 I-5.8411 J-5.8448
G00 Z5.0000


(No. 10: Part 1)
G00 X2.9899 Y2.7139 Z5.0000
G00 Z0.5000
G01 Z0.0000 F100
G01 Z-2.1000
G03 X19.8723 Y2.3240 I8.6520 J8.9314
G03 X37.4173 Y19.8723 I8.2288 J9.3177
G03 X19.8690 Y37.4173 I-9.3177 J8.2288
G03 X2.3240 Y19.8690 I-8.2288 J-9.3177
G03 X2.9899 Y2.7139 I9.3158 J-8.2289
G01 Z-4.2000
G03 X19.8723 Y2.3240 I8.6520 J8.9314
G03 X37.4173 Y19.8723 I8.2288 J9.3177
G03 X19.8690 Y37.4173 I-9.3177 J8.2288
G03 X2.3240 Y19.8690 I-8.2288 J-9.3177
G03 X2.9899 Y2.7139 I9.3158 J-8.2289
G01 Z-6.0000
G03 X19.8723 Y2.3240 I8.6520 J8.9314
G03 X37.4173 Y19.8723 I8.2288 J9.3177
G03 X19.8690 Y37.4173 I-9.3177 J8.2288
G03 X2.3240 Y19.8690 I-8.2288 J-9.3177
G03 X2.9899 Y2.7139 I9.3158 J-8.2289
G00 Z5.0000
G00 X0.0000 Y0.0000

M05
M30
